X: 16
T:Where's the Cat
M:6/8
L:1/8
Z:id:dc-slide-34
K:A Major
"A"EFE A2E| "D"F2E "Bm"A2E| "A"EFE A2c| "Bm"B2A "D"F2E|
"A"EFE A2E| "D"F2E A2e| "A"cec "Bm"d2c| B2A "D"F2E:|
"A"cBc e2c| "Bm"BAF d2c| "A"cBc e2c| "Bm"B2A F2E|
"A"cBc e2c| "Bm"BAF "D"d2a| faf "A"e2c| "Bm"B2A "D"F2E:|!
